X: 0892
T: CHAMPION'S MARCH
C: B. F. Richardson
B: Oliver Ditson "The Boston Collection of Instrumental Music" 1910 p.89 #2
%: 2012 John Chambers <jc:trillian.mit.edu>
M: 4/4
L: 1/8
K: Bb
B>d |\
f2 (3gf=e f2 (3gfe | f2 d>d d2 b>a | g>f e>d c>B A>G | F2 f>g f>e d>e |\
f2 (3gf=e f2 (3gfe | f2 d>d d2 (3Bdf | b>a (3gfe d>f (3ecA | B2 B>B B2 ||
B>d |\
c>d c>A F2 B>d | f>g f>d B2 (3fga | b>b a>b a>g f>=e | f>a g>=e f2 B>d |\
c>d c>A F>A c>d | e4 g4 | f>b g>e d>f e>c | B2 B>B B2 ||
B>d |\
c4 f2 =e/f/g/a/ | bf dB f2 B/c/d/e/ | f>g f>=e f>g f>e | f>=e f>g f>_e d>c |\
c4 f2 =e/f/g/a/ | bf dB f2 B/c/d/e/ | f>g f>=e f>g f>e | f>_e c>d B2 |]

%%sep 1 1 500
%%sep 1 1 500
